dist/images/service/3.svg

<svg width="44" height="62" viewBox="0 0 44 62" fill="none" xmlns="http://www.w3.org/2000/svg">
<path d="M43.2437 0.082692C42.778 -0.104564 42.238 0.033668 41.9081 0.421842C41.8923 0.439522 40.3041 2.26225 33.8832 5.72206C27.3668 9.23652 9.14073 20.6752 8.30635 21.2016C2.44911 25.4168 -0.685535 32.4779 0.126742 39.6306C0.71957 44.8344 3.25902 49.3269 6.90677 52.4701L1.78682 60.1154C1.41818 60.6659 1.5579 61.4149 2.09784 61.7902C2.30229 61.9325 2.53437 62 2.76408 62C3.14219 62 3.51399 61.816 3.7437 61.4736L8.8084 53.9118C11.9036 55.9837 15.5789 57.1892 19.4722 57.1892C20.2182 57.1892 20.9712 57.1458 21.7298 57.0566C28.6085 56.2457 34.5621 51.6833 37.3273 45.1245C37.3865 45.061 37.4481 44.983 37.4962 44.8938C40.9237 39.2279 43.1608 23.8754 43.3132 19.5878C43.4466 15.5027 43.9936 1.38705 43.9992 1.2448C44.0181 0.732863 43.7118 0.271555 43.2437 0.082692ZM2.47911 39.3541C1.7663 33.0783 4.52282 26.8779 9.6112 23.2132C9.79986 23.095 28.543 11.3309 34.9915 7.8534C36.0824 7.26511 37.0344 6.72424 37.8791 6.22355L8.24083 50.4785C5.13618 47.7252 2.98905 43.8346 2.47911 39.3541ZM35.548 43.5115C35.5046 43.5533 35.4557 43.6055 35.4059 43.669C35.3372 43.7566 35.2812 43.8539 35.2386 43.9584C32.8475 49.8388 27.5665 53.9408 21.4559 54.6601C17.3274 55.1471 13.3663 54.087 10.1322 51.9332L41.4787 5.12895C41.3042 9.66166 41.0342 16.7886 40.9458 19.5034C40.7769 24.2105 38.5248 38.3616 35.548 43.5115Z" fill="#0038FF"/>
</svg>

<svg width="44" height="62" fill="none" xmlns="http://www.w3.org/2000/svg"><path d="M43.244.083a1.182 1.182 0 00-1.336.339c-.016.018-1.604 1.84-8.025 5.3-6.516 3.515-24.742 14.953-25.577 15.48C2.45 25.417-.686 32.478.126 39.63a19.861 19.861 0 006.78 12.84l-5.12 7.644a1.22 1.22 0 00.312 1.675c.204.142.436.21.666.21.378 0 .75-.184.98-.526l5.064-7.562c3.096 2.072 6.77 3.277 10.664 3.277.746 0 1.5-.043 2.258-.132 6.878-.811 12.832-5.374 15.597-11.933.06-.063.121-.141.17-.23 3.427-5.666 5.664-21.019 5.816-25.306.134-4.085.68-18.201.686-18.343a1.205 1.205 0 00-.755-1.162zM2.479 39.354c-.713-6.276 2.044-12.476 7.132-16.14.189-.119 18.932-11.883 25.38-15.36a81.665 81.665 0 002.888-1.63L8.241 50.478a17.46 17.46 0 01-5.762-11.124zm33.069 4.157a1.527 1.527 0 00-.142.158 1.205 1.205 0 00-.167.29c-2.392 5.88-7.672 9.982-13.783 10.701-4.129.487-8.09-.573-11.324-2.727L41.48 5.13a3498.25 3498.25 0 00-.533 14.374c-.17 4.707-2.421 18.859-5.398 24.008z" fill="#0038FF"/></svg>
